public/images/hashed/64dca75f42dc52b5da30a362b0f935e8.svg

<svg xmlns="http://www.w3.org/2000/svg" width="80" height="80"><defs><linearGradient id="a" x1="0%" x2="100%" y1="100%" y2="0%"><stop offset="0%" stop-color="#4D27A8"/><stop offset="100%" stop-color="#A166FF"/></linearGradient></defs><g fill="none" fill-rule="evenodd"><path fill="url(#a)" d="M0 0h80v80H0z"/><path fill="#FFF" d="m30.597 54.484-4.07-4.07 4.07-4.071-1.414-1.414-4.777 4.778a.999.999 0 0 0 0 1.414l4.777 4.777 1.414-1.414Zm22.11-23.363a.999.999 0 0 0 0-1.414l-4.777-4.778-1.414 1.414 4.07 4.071-4.07 4.07 1.414 1.414 4.777-4.777ZM44 53.04h12v-2H44v2Zm-7 6h31v-2H37v2Zm-20-28h14v-2H17v2Zm-5-8h31v-2H12v2Zm51.7 8.13C63.7 22.805 56.894 16 48.53 16c-2.578 0-5.123.658-7.363 1.903l.973 1.748A13.177 13.177 0 0 1 48.53 18c7.261 0 13.17 5.908 13.17 13.17s-5.909 13.17-13.17 13.17a13.21 13.21 0 0 1-3.542-.481l-.537 1.926c1.321.368 2.694.555 4.079.555 8.364 0 15.17-6.805 15.17-15.17Zm-27.888 3.437c-.3-1.114-.452-2.27-.452-3.437 0-1.746.336-3.441.998-5.039l-1.848-.765a15.064 15.064 0 0 0-1.15 5.804c0 1.342.175 2.673.52 3.957l1.932-.52ZM41 64.04H17a1 1 0 0 1-1-1v-24a1 1 0 0 1 1-1h24a1 1 0 0 1 1 1v16h-2v-15H18v22h22v-1h2v2a1 1 0 0 1-1 1Z"/></g></svg>

<?xml version="1.0" encoding="UTF-8"?>
<svg width="80px" height="80px" viewBox="0 0 80 80" version="1.1" xmlns="http://www.w3.org/2000/svg" xmlns:xlink="http://www.w3.org/1999/xlink">
    <title>Icon-Architecture/64/Arch_AWS-Data-Exchange_64</title>
    <defs>
        <linearGradient x1="0%" y1="100%" x2="100%" y2="0%" id="linearGradient-1">
            <stop stop-color="#4D27A8" offset="0%"></stop>
            <stop stop-color="#A166FF" offset="100%"></stop>
        </linearGradient>
    </defs>
    <g id="Icon-Architecture/64/Arch_AWS-Data-Exchange_64" stroke="none" stroke-width="1" fill="none" fill-rule="evenodd">
        <g id="Rectangle" fill="url(#linearGradient-1)">
            <rect x="0" y="0" width="80" height="80"></rect>
        </g>
        <path d="M30.597,54.484 L26.527,50.414 L30.597,46.343 L29.183,44.929 L24.406,49.707 C24.015,50.097 24.015,50.73 24.406,51.121 L29.183,55.898 L30.597,54.484 Z M52.707,31.121 C53.098,30.73 53.098,30.097 52.707,29.707 L47.93,24.929 L46.516,26.343 L50.586,30.414 L46.516,34.484 L47.93,35.898 L52.707,31.121 Z M44,53.04 L56,53.04 L56,51.04 L44,51.04 L44,53.04 Z M37,59.04 L68,59.04 L68,57.04 L37,57.04 L37,59.04 Z M17,31.04 L31,31.04 L31,29.04 L17,29.04 L17,31.04 Z M12,23.04 L43,23.04 L43,21.04 L12,21.04 L12,23.04 Z M63.7,31.17 C63.7,22.805 56.894,16 48.53,16 C45.952,16 43.407,16.658 41.167,17.903 L42.14,19.651 C44.082,18.571 46.292,18 48.53,18 C55.791,18 61.7,23.908 61.7,31.17 C61.7,38.432 55.791,44.34 48.53,44.34 C47.326,44.34 46.134,44.178 44.988,43.859 L44.451,45.785 C45.772,46.153 47.145,46.34 48.53,46.34 C56.894,46.34 63.7,39.535 63.7,31.17 L63.7,31.17 Z M35.812,34.607 C35.512,33.493 35.36,32.337 35.36,31.17 C35.36,29.424 35.696,27.729 36.358,26.131 L34.51,25.366 C33.746,27.207 33.36,29.16 33.36,31.17 C33.36,32.512 33.535,33.843 33.88,35.127 L35.812,34.607 Z M41,64.04 L17,64.04 C16.448,64.04 16,63.592 16,63.04 L16,39.04 C16,38.488 16.448,38.04 17,38.04 L41,38.04 C41.553,38.04 42,38.488 42,39.04 L42,55.04 L40,55.04 L40,40.04 L18,40.04 L18,62.04 L40,62.04 L40,61.04 L42,61.04 L42,63.04 C42,63.592 41.553,64.04 41,64.04 L41,64.04 Z" id="AWS-Data-Exchange_Icon_64_Squid" fill="#FFFFFF"></path>
    </g>
</svg>
